src/static/img/logo.svg

<svg viewBox="0 0 321 370" fill="none" xmlns="http://www.w3.org/2000/svg"><rect x="120.218" y="7.084" width="209.774" height="299" rx="17.69" transform="rotate(22.322 120.218 7.084)" fill="#fff" stroke="#DFDFDF" stroke-width="10"/><path fill-rule="evenodd" clip-rule="evenodd" d="M26.93 247.461l-8.986 21.884c-2.662 6.483.436 13.897 6.92 16.559l161.325 66.236c6.484 2.662 13.897-.435 16.559-6.919l25.619-62.398c-42.723 20.292-94.635 22.917-143.167 2.99-22.494-9.235-42.1-22.428-58.27-38.352z" fill="#DFDFDF" fill-opacity=".32"/><path d="M124.538 149.424l-11.259-12.387c-.762-1.13-.887-2.816.243-3.578.637-.556 1.273-1.112 1.767-1.318 1.13-.762 2.816-.887 3.784.736l9.842 13.849c.762 1.13.537 2.672-.593 3.434-.986.412-2.672.538-3.784-.736zm8.772-7.432l-8.012-14.323c-.619-1.48-.394-3.022 1.086-3.64.493-.206 1.13-.762 1.973-.825 1.479-.618 3.228.1 3.846 1.58l6.39 15.291c.618 1.48.044 2.878-1.436 3.497-1.336.268-3.228-.1-3.847-1.58zm10.646-5.028l-4.56-15.765c-.269-1.337.449-3.085 1.786-3.354.493-.206 1.336-.268 1.829-.475 1.48-.618 2.941.799 3.559 2.279l2.731 16.241c.269 1.336-.655 2.591-2.135 3.21-1.336.268-2.941-.799-3.21-2.136zm11.327-2.705l-.695-16.222c-.125-1.686 1.148-2.797 2.485-3.066.843-.062 1.336-.269 2.035.019 1.686-.126 3.147 1.292 2.779 3.184l-.991 16.347c-.224 1.542-1.498 2.654-2.691 2.573-1.192-.081-2.797-1.149-2.922-2.835zm11.864-.032l2.883-15.979c.224-1.543 1.848-2.511 3.39-2.286.699.287 1.542.225 1.892.368 1.542.225 2.51 1.848 2.142 3.74l-4.775 15.611c-.574 1.399-1.704 2.161-3.247 1.936-1.542-.224-2.51-1.848-2.285-3.39zm-37.904 92.318l-9.096 12.202c-1.068 1.605-3.247 1.936-4.708.519-3.067-2.485-5.989-5.32-8.418-8.36-1.112-1.274-.95-3.659.673-4.627l12.019-9.368c1.274-1.111 3.166-.743 4.627.674 1.318 1.767 2.779 3.184 4.59 4.745.906.78 1.237 2.96.313 4.215zm-13.689-15.428l-13.337 7.601c-1.623.968-3.865.456-4.69-1.517a51.604 51.604 0 0 1-3.503-8.385c-.475-1.83.386-3.928 2.216-4.403l14.779-4.148c1.83-.474 3.578.243 4.053 2.073l1.855 4.439c.968 1.624.25 3.372-1.373 4.34zm-1.816-47.33l-13.701-6.443c-1.748-.718-2.43-3.04-1.711-4.789 1.498-2.654 2.996-5.308 4.844-7.818 1.068-1.605 3.247-1.936 4.852-.869l12.058 9.446c1.256.924 1.587 3.104.663 4.359-.924 1.255-1.498 2.654-2.566 4.259a3.388 3.388 0 0 1-4.439 1.855zm48.538 73.869l.364 14.043c.25 3.371-1.661 5.039-3.203 4.814-2.385-.162-5.12-.468-7.506-.63-1.892-.368-3.209-2.135-2.841-4.027l2.802-14.786c.368-1.892 1.991-2.86 4.027-2.842l3.578.243c1.336-.268 2.797 1.149 2.779 3.185zm-17.316-2.615l-4.612 13.226c-1.293 3.147-2.916 4.115-5.014 3.254-2.448-1.005-4.546-1.867-6.85-3.222-1.605-1.067-2.43-3.04-1.362-4.645l7.841-13.126c1.068-1.605 2.897-2.08 4.646-1.362l3.147 1.292c1.748.718 2.573 2.691 2.204 4.583zm67.42-41.787l13.737 2.371c3.085.449 4.403 2.216 4.035 4.108-.88 4.134-2.254 8.474-3.977 12.67-8.327 20.282-24.885 34.733-44.453 40.592-1.83.475-3.784-.736-3.909-2.422l-3.655-14.986c-.475-1.829.593-3.434 2.422-3.909 12.888-4.516 23.714-13.965 29.313-27.602 1.149-2.798 1.804-5.389 2.603-8.33.718-1.749 2.342-2.717 3.884-2.492zm-31.29-56.163l5.456-13.288c.861-2.098 3.184-2.779 4.933-2.061 21.599 10.094 35.807 30.23 39.325 52.515.331 2.179-1.229 3.99-3.409 4.321l-14.473 1.413c-2.036-.018-3.641-1.086-4.116-2.915-2.462-14.905-12.098-28.26-26.498-34.99-1.255-.924-1.936-3.246-1.218-4.995zm-36.977 31.143l-5.135-5.638c-.348-.514-.406-1.28.109-1.626.29-.253.58-.505.804-.599.515-.346 1.283-.402 1.725.337l4.49 6.301c.347.514.246 1.215-.269 1.561-.449.187-1.217.244-1.724-.336zm3.993-3.376l-3.657-6.516c-.282-.673-.18-1.374.494-1.655.224-.093.514-.346.898-.374a1.354 1.354 0 0 1 1.753.72l2.918 6.956c.282.673.021 1.309-.653 1.589-.608.122-1.471-.046-1.753-.72zm4.848-2.281l-2.084-7.171c-.123-.608.203-1.403.812-1.524.224-.094.608-.122.833-.215.674-.281 1.34.364 1.623 1.037l1.251 7.386c.123.608-.298 1.178-.972 1.459-.608.122-1.34-.365-1.463-.972zm5.159-1.225l-.323-7.377c-.058-.767.522-1.272 1.13-1.393.384-.029.609-.122.928.009.768-.056 1.434.589 1.267 1.449l-.444 7.433c-.102.701-.682 1.206-1.225 1.169-.544-.038-1.275-.524-1.333-1.29zm5.405-.01l1.307-7.265c.101-.701.841-1.141 1.543-1.038.319.131.703.103.862.168.703.103 1.145.842.978 1.702l-2.169 7.096c-.261.636-.775.982-1.478.879-.703-.102-1.144-.841-1.043-1.542zm-17.229 41.963l-4.139 5.544c-.485.73-1.478.879-2.144.234-1.398-1.131-2.731-2.421-3.839-3.805-.507-.58-.434-1.664.305-2.104l5.471-4.254c.58-.505 1.442-.337 2.109.308.601.804 1.267 1.449 2.093 2.16.413.355.565 1.346.144 1.917zm-6.243-7.022l-6.073 3.451c-.739.439-1.76.206-2.137-.692a23.556 23.556 0 0 1-1.6-3.814c-.217-.833.175-1.786 1.008-2.001l6.732-1.88c.833-.215 1.63.112 1.847.944l.847 2.02c.442.738.115 1.533-.624 1.972zm-.848-21.523l-6.244-2.935c-.797-.327-1.108-1.384-.782-2.178.682-1.206 1.363-2.413 2.204-3.553.485-.73 1.478-.879 2.21-.393l5.498 4.3c.572.421.724 1.412.303 1.982-.42.571-.681 1.206-1.167 1.936a1.541 1.541 0 0 1-2.022.841zm22.145 33.611l.172 6.386c.116 1.533-.754 2.291-1.457 2.188-1.087-.075-2.333-.215-3.42-.29-.862-.168-1.463-.972-1.296-1.832l1.27-6.723c.167-.86.906-1.3 1.834-1.29l1.63.112c.609-.122 1.275.523 1.267 1.449zm-7.889-1.196l-2.096 6.012c-.588 1.43-1.327 1.87-2.283 1.477-1.116-.458-2.072-.85-3.122-1.467-.732-.487-1.108-1.384-.623-2.113l3.567-5.966c.486-.729 1.319-.944 2.116-.617l1.434.589c.797.327 1.174 1.225 1.007 2.085zm30.697-18.973l6.26 1.084c1.405.206 2.006 1.01 1.84 1.87-.4 1.879-1.023 3.852-1.807 5.759-3.785 9.22-11.322 15.784-20.235 18.44-.833.215-1.724-.337-1.782-1.104l-1.671-6.815c-.217-.833.269-1.562 1.102-1.777 5.869-2.048 10.798-6.34 13.343-12.539.522-1.271.819-2.45 1.182-3.787.326-.794 1.065-1.234 1.768-1.131zm-14.279-25.552l2.48-6.04c.391-.953 1.449-1.262 2.246-.935 9.845 4.599 16.327 13.762 17.939 23.897.152.991-.559 1.813-1.551 1.963l-6.594.636c-.927-.009-1.659-.495-1.876-1.327-1.128-6.779-5.524-12.856-12.087-15.922-.572-.42-.883-1.477-.557-2.272zm-14.035 17.216l-1.51-1.658c-.102-.152-.119-.377.032-.479.086-.074.171-.148.237-.176.151-.102.377-.118.507.099l1.321 1.853a.33.33 0 0 1-.079.46c-.133.055-.358.071-.508-.099zm1.175-.993l-1.076-1.917c-.083-.198-.053-.404.146-.487.066-.027.151-.101.264-.11a.398.398 0 0 1 .515.212l.859 2.046c.083.198.006.385-.192.468-.179.035-.433-.014-.516-.212zm1.426-.671l-.613-2.109c-.036-.179.06-.413.239-.449.066-.027.179-.035.245-.063.198-.082.394.107.477.305l.368 2.173c.036.178-.088.346-.286.429-.179.035-.394-.108-.43-.286zm1.517-.361l-.095-2.169c-.017-.226.154-.374.333-.41.113-.008.179-.036.272.003a.35.35 0 0 1 .373.426l-.131 2.186c-.029.206-.2.355-.36.344-.16-.011-.375-.154-.392-.38zm1.59-.002l.384-2.137c.03-.206.248-.336.454-.305.094.038.207.03.254.049.206.03.336.247.287.5l-.638 2.088c-.076.187-.228.288-.434.258-.207-.03-.337-.247-.307-.453zm-5.067 12.341l-1.218 1.631a.405.405 0 0 1-.631.069 7.515 7.515 0 0 1-1.129-1.119c-.149-.171-.127-.49.09-.619l1.609-1.251c.171-.149.425-.099.621.091.176.236.372.426.615.635.122.104.166.396.043.563zm-1.837-2.065l-1.786 1.015a.432.432 0 0 1-.628-.203 6.81 6.81 0 0 1-.471-1.122c-.064-.245.051-.525.297-.589l1.979-.552c.245-.064.48.032.544.277l.249.594c.13.217.034.451-.184.58zm-.249-6.33l-1.837-.863c-.234-.096-.325-.407-.23-.641.201-.355.401-.709.649-1.045a.467.467 0 0 1 .65-.115l1.617 1.264c.168.124.213.416.089.583-.124.168-.2.355-.343.57a.455.455 0 0 1-.595.247zm6.513 9.886l.051 1.878c.034.451-.222.674-.429.643-.319-.022-.686-.063-1.006-.085a.467.467 0 0 1-.381-.539l.374-1.977c.049-.253.266-.382.539-.38l.479.033c.18-.035.375.154.373.427zm-2.32-.352l-.617 1.768c-.172.421-.39.55-.671.435a6.911 6.911 0 0 1-.918-.432c-.216-.143-.326-.407-.183-.622l1.049-1.754a.492.492 0 0 1 .622-.182l.422.174c.234.096.345.36.296.613zm9.028-5.58l1.842.318c.413.061.59.297.541.55a9.986 9.986 0 0 1-.532 1.694c-1.113 2.712-3.33 4.642-5.951 5.424-.245.063-.507-.099-.524-.325l-.492-2.005c-.064-.244.079-.459.324-.522 1.727-.602 3.176-1.865 3.925-3.688.153-.374.241-.72.347-1.114.096-.233.314-.363.52-.332zm-4.199-7.516l.729-1.776a.507.507 0 0 1 .661-.275c2.895 1.353 4.802 4.047 5.276 7.028.045.292-.164.534-.456.578l-1.94.187c-.272-.003-.488-.146-.551-.391a6.321 6.321 0 0 0-3.555-4.682c-.169-.124-.26-.435-.164-.669z" fill="#F2795F"/></svg>

<svg viewBox="0 0 321 370" fill="none" xmlns="http://www.w3.org/2000/svg">
<rect x="120.218" y="7.08427" width="209.774" height="299" rx="17.6896" transform="rotate(22.322 120.218 7.08427)" fill="white" stroke="#DFDFDF" stroke-width="10"/>
<path fill-rule="evenodd" clip-rule="evenodd" d="M26.9293 247.461L17.9442 269.345C15.2824 275.828 18.3801 283.242 24.8632 285.904L186.189 352.14C192.673 354.802 200.086 351.705 202.748 345.221L228.367 282.823C185.644 303.115 133.732 305.74 85.2 285.813C62.7059 276.578 43.0995 263.385 26.9293 247.461Z" fill="#DFDFDF" fill-opacity="0.32"/>
<path d="M124.538 149.424L113.279 137.037C112.517 135.907 112.392 134.221 113.522 133.459C114.159 132.903 114.795 132.347 115.289 132.141C116.419 131.379 118.105 131.254 119.073 132.877L128.915 146.726C129.677 147.856 129.452 149.398 128.322 150.16C127.336 150.572 125.65 150.698 124.538 149.424ZM133.31 141.992L125.298 127.669C124.679 126.189 124.904 124.647 126.384 124.029C126.877 123.823 127.514 123.267 128.357 123.204C129.836 122.586 131.585 123.304 132.203 124.784L138.593 140.075C139.211 141.555 138.637 142.953 137.157 143.572C135.821 143.84 133.929 143.472 133.31 141.992ZM143.956 136.964L139.396 121.199C139.127 119.862 139.845 118.114 141.182 117.845C141.675 117.639 142.518 117.577 143.011 117.37C144.491 116.752 145.952 118.169 146.57 119.649L149.301 135.89C149.57 137.226 148.646 138.481 147.166 139.1C145.83 139.368 144.225 138.301 143.956 136.964ZM155.283 134.259L154.588 118.037C154.463 116.351 155.736 115.24 157.073 114.971C157.916 114.909 158.409 114.702 159.108 114.99C160.794 114.864 162.255 116.282 161.887 118.174L160.896 134.521C160.672 136.063 159.398 137.175 158.205 137.094C157.013 137.013 155.408 135.945 155.283 134.259ZM167.147 134.227L170.03 118.248C170.254 116.705 171.878 115.737 173.42 115.962C174.119 116.249 174.962 116.187 175.312 116.33C176.854 116.555 177.822 118.178 177.454 120.07L172.679 135.681C172.105 137.08 170.975 137.842 169.432 137.617C167.89 137.393 166.922 135.769 167.147 134.227ZM129.243 226.545L120.147 238.747C119.079 240.352 116.9 240.683 115.439 239.266C112.372 236.781 109.45 233.946 107.021 230.906C105.909 229.632 106.071 227.247 107.694 226.279L119.713 216.911C120.987 215.8 122.879 216.168 124.34 217.585C125.658 219.352 127.119 220.769 128.93 222.33C129.836 223.11 130.167 225.29 129.243 226.545ZM115.554 211.117L102.217 218.718C100.594 219.686 98.3523 219.174 97.5278 217.201C96.1476 214.591 94.9109 211.632 94.0239 208.816C93.5491 206.986 94.4105 204.888 96.24 204.413L111.019 200.265C112.849 199.791 114.597 200.508 115.072 202.338C115.69 203.818 116.309 205.297 116.927 206.777C117.895 208.401 117.177 210.149 115.554 211.117ZM113.738 163.787L100.037 157.344C98.2888 156.626 97.6079 154.304 98.3257 152.555C99.824 149.901 101.322 147.247 103.17 144.737C104.238 143.132 106.417 142.801 108.022 143.868L120.08 153.314C121.336 154.238 121.667 156.418 120.743 157.673C119.819 158.928 119.245 160.327 118.177 161.932C117.459 163.68 115.486 164.505 113.738 163.787ZM162.276 237.656L162.64 251.699C162.89 255.07 160.979 256.738 159.437 256.513C157.052 256.351 154.317 256.045 151.931 255.883C150.039 255.515 148.722 253.748 149.09 251.856L151.892 237.07C152.26 235.178 153.883 234.21 155.919 234.228C157.111 234.309 158.304 234.39 159.497 234.471C160.833 234.203 162.294 235.62 162.276 237.656ZM144.96 235.041L140.348 248.267C139.055 251.414 137.432 252.382 135.334 251.521C132.886 250.516 130.788 249.654 128.484 248.299C126.879 247.232 126.054 245.259 127.122 243.654L134.963 230.528C136.031 228.923 137.86 228.448 139.609 229.166C140.658 229.597 141.707 230.028 142.756 230.458C144.504 231.176 145.329 233.149 144.96 235.041ZM212.38 193.254L226.117 195.625C229.202 196.074 230.52 197.841 230.152 199.733C229.272 203.867 227.898 208.207 226.175 212.403C217.848 232.685 201.29 247.136 181.722 252.995C179.892 253.47 177.938 252.259 177.813 250.573L174.158 235.587C173.683 233.758 174.751 232.153 176.58 231.678C189.468 227.162 200.294 217.713 205.893 204.076C207.042 201.278 207.697 198.687 208.496 195.746C209.214 193.997 210.838 193.029 212.38 193.254ZM181.09 137.091L186.546 123.803C187.407 121.705 189.73 121.024 191.479 121.742C213.078 131.836 227.286 151.972 230.804 174.257C231.135 176.436 229.575 178.247 227.395 178.578L212.922 179.991C210.886 179.973 209.281 178.905 208.806 177.076C206.344 162.171 196.708 148.816 182.308 142.086C181.053 141.162 180.372 138.84 181.09 137.091Z" fill="#F2795F"/>
<path d="M144.113 168.234L138.978 162.596C138.63 162.082 138.572 161.316 139.087 160.97C139.377 160.717 139.667 160.465 139.891 160.371C140.406 160.025 141.174 159.969 141.616 160.708L146.106 167.009C146.453 167.523 146.352 168.224 145.837 168.57C145.388 168.757 144.62 168.814 144.113 168.234ZM148.106 164.858L144.449 158.342C144.167 157.669 144.269 156.968 144.943 156.687C145.167 156.594 145.457 156.341 145.841 156.313C146.515 156.032 147.312 156.36 147.594 157.033L150.512 163.989C150.794 164.662 150.533 165.298 149.859 165.578C149.251 165.7 148.388 165.532 148.106 164.858ZM152.954 162.577L150.87 155.406C150.747 154.798 151.073 154.003 151.682 153.882C151.906 153.788 152.29 153.76 152.515 153.667C153.189 153.386 153.855 154.031 154.138 154.704L155.389 162.09C155.512 162.698 155.091 163.268 154.417 163.549C153.809 163.671 153.077 163.184 152.954 162.577ZM158.113 161.352L157.79 153.975C157.732 153.208 158.312 152.703 158.92 152.582C159.304 152.553 159.529 152.46 159.848 152.591C160.616 152.535 161.282 153.18 161.115 154.04L160.671 161.473C160.569 162.174 159.989 162.679 159.446 162.642C158.902 162.604 158.171 162.118 158.113 161.352ZM163.518 161.342L164.825 154.077C164.926 153.376 165.666 152.936 166.368 153.039C166.687 153.17 167.071 153.142 167.23 153.207C167.933 153.31 168.375 154.049 168.208 154.909L166.039 162.005C165.778 162.641 165.264 162.987 164.561 162.884C163.858 162.782 163.417 162.043 163.518 161.342ZM146.289 203.305L142.15 208.849C141.665 209.579 140.672 209.728 140.006 209.083C138.608 207.952 137.275 206.662 136.167 205.278C135.66 204.698 135.733 203.614 136.472 203.174L141.943 198.92C142.523 198.415 143.385 198.583 144.052 199.228C144.653 200.032 145.319 200.677 146.145 201.388C146.558 201.743 146.71 202.734 146.289 203.305ZM140.046 196.283L133.973 199.734C133.234 200.173 132.213 199.94 131.836 199.042C131.206 197.855 130.642 196.508 130.236 195.228C130.019 194.395 130.411 193.442 131.244 193.227L137.976 191.347C138.809 191.132 139.606 191.459 139.823 192.291C140.105 192.964 140.387 193.637 140.67 194.311C141.112 195.049 140.785 195.844 140.046 196.283ZM139.198 174.76L132.954 171.825C132.157 171.498 131.846 170.441 132.172 169.647C132.854 168.441 133.535 167.234 134.376 166.094C134.861 165.364 135.854 165.215 136.586 165.701L142.084 170.001C142.656 170.422 142.808 171.413 142.387 171.983C141.967 172.554 141.706 173.189 141.22 173.919C140.894 174.714 139.995 175.088 139.198 174.76ZM161.343 208.371L161.515 214.757C161.631 216.29 160.761 217.048 160.058 216.945C158.971 216.87 157.725 216.73 156.638 216.655C155.776 216.487 155.175 215.683 155.342 214.823L156.612 208.1C156.779 207.24 157.518 206.8 158.446 206.81C158.989 206.847 159.533 206.884 160.076 206.922C160.685 206.8 161.351 207.445 161.343 208.371ZM153.454 207.175L151.358 213.187C150.77 214.617 150.031 215.057 149.075 214.664C147.959 214.206 147.003 213.814 145.953 213.197C145.221 212.71 144.845 211.813 145.33 211.084L148.897 205.118C149.383 204.389 150.216 204.174 151.013 204.501C151.491 204.697 151.969 204.894 152.447 205.09C153.244 205.417 153.621 206.315 153.454 207.175ZM184.151 188.202L190.411 189.286C191.816 189.492 192.417 190.296 192.251 191.156C191.851 193.035 191.228 195.008 190.444 196.915C186.659 206.135 179.122 212.699 170.209 215.355C169.376 215.57 168.485 215.018 168.427 214.251L166.756 207.436C166.539 206.603 167.025 205.874 167.858 205.659C173.727 203.611 178.656 199.319 181.201 193.12C181.723 191.849 182.02 190.67 182.383 189.333C182.709 188.539 183.448 188.099 184.151 188.202ZM169.872 162.65L172.352 156.61C172.743 155.657 173.801 155.348 174.598 155.675C184.443 160.274 190.925 169.437 192.537 179.572C192.689 180.563 191.978 181.385 190.986 181.535L184.392 182.171C183.465 182.162 182.733 181.676 182.516 180.844C181.388 174.065 176.992 167.988 170.429 164.922C169.857 164.502 169.546 163.445 169.872 162.65Z" fill="#F2795F"/>
<path d="M155.837 179.866L154.327 178.208C154.225 178.056 154.208 177.831 154.359 177.729C154.445 177.655 154.53 177.581 154.596 177.553C154.747 177.451 154.973 177.435 155.103 177.652L156.424 179.505C156.526 179.657 156.496 179.863 156.345 179.965C156.212 180.02 155.987 180.036 155.837 179.866ZM157.012 178.873L155.936 176.956C155.853 176.758 155.883 176.552 156.082 176.469C156.148 176.442 156.233 176.368 156.346 176.359C156.544 176.277 156.778 176.373 156.861 176.571L157.72 178.617C157.803 178.815 157.726 179.002 157.528 179.085C157.349 179.12 157.095 179.071 157.012 178.873ZM158.438 178.202L157.825 176.093C157.789 175.914 157.885 175.68 158.064 175.644C158.13 175.617 158.243 175.609 158.309 175.581C158.507 175.499 158.703 175.688 158.786 175.886L159.154 178.059C159.19 178.237 159.066 178.405 158.868 178.488C158.689 178.523 158.474 178.38 158.438 178.202ZM159.955 177.841L159.86 175.672C159.843 175.446 160.014 175.298 160.193 175.262C160.306 175.254 160.372 175.226 160.465 175.265C160.691 175.248 160.887 175.438 160.838 175.691L160.707 177.877C160.678 178.083 160.507 178.232 160.347 178.221C160.187 178.21 159.972 178.067 159.955 177.841ZM161.545 177.839L161.929 175.702C161.959 175.496 162.177 175.366 162.383 175.397C162.477 175.435 162.59 175.427 162.637 175.446C162.843 175.476 162.973 175.693 162.924 175.946L162.286 178.034C162.21 178.221 162.058 178.322 161.852 178.292C161.645 178.262 161.515 178.045 161.545 177.839ZM156.478 190.18L155.26 191.811C155.117 192.026 154.825 192.07 154.629 191.88C154.218 191.547 153.826 191.168 153.5 190.761C153.351 190.59 153.373 190.271 153.59 190.142L155.199 188.891C155.37 188.742 155.624 188.792 155.82 188.982C155.996 189.218 156.192 189.408 156.435 189.617C156.557 189.721 156.601 190.013 156.478 190.18ZM154.641 188.115L152.855 189.13C152.638 189.26 152.337 189.191 152.227 188.927C152.041 188.578 151.875 188.182 151.756 187.805C151.692 187.56 151.807 187.28 152.053 187.216L154.032 186.664C154.277 186.6 154.512 186.696 154.576 186.941C154.659 187.139 154.742 187.337 154.825 187.535C154.955 187.752 154.859 187.986 154.641 188.115ZM154.392 181.785L152.555 180.922C152.321 180.826 152.23 180.515 152.325 180.281C152.526 179.926 152.726 179.572 152.974 179.236C153.116 179.022 153.408 178.978 153.624 179.121L155.241 180.385C155.409 180.509 155.454 180.801 155.33 180.968C155.206 181.136 155.13 181.323 154.987 181.538C154.891 181.771 154.626 181.881 154.392 181.785ZM160.905 191.671L160.956 193.549C160.99 194 160.734 194.223 160.527 194.192C160.208 194.17 159.841 194.129 159.521 194.107C159.268 194.058 159.091 193.821 159.14 193.568L159.514 191.591C159.563 191.338 159.78 191.209 160.053 191.211C160.213 191.222 160.373 191.233 160.532 191.244C160.712 191.209 160.907 191.398 160.905 191.671ZM158.585 191.319L157.968 193.087C157.796 193.508 157.578 193.637 157.297 193.522C156.969 193.387 156.688 193.271 156.379 193.09C156.163 192.947 156.053 192.683 156.196 192.468L157.245 190.714C157.387 190.499 157.632 190.436 157.867 190.532C158.007 190.59 158.148 190.648 158.289 190.706C158.523 190.802 158.634 191.066 158.585 191.319ZM167.613 185.739L169.455 186.057C169.868 186.118 170.045 186.354 169.996 186.607C169.878 187.16 169.695 187.74 169.464 188.301C168.351 191.013 166.134 192.943 163.513 193.725C163.268 193.788 163.006 193.626 162.989 193.4L162.497 191.395C162.433 191.151 162.576 190.936 162.821 190.873C164.548 190.271 165.997 189.008 166.746 187.185C166.899 186.811 166.987 186.465 167.093 186.071C167.189 185.838 167.407 185.708 167.613 185.739ZM163.414 178.223L164.143 176.447C164.258 176.166 164.569 176.076 164.804 176.172C167.699 177.525 169.606 180.219 170.08 183.2C170.125 183.492 169.916 183.734 169.624 183.778L167.684 183.965C167.412 183.962 167.196 183.819 167.133 183.574C166.801 181.581 165.508 179.793 163.578 178.892C163.409 178.768 163.318 178.457 163.414 178.223Z" fill="#F2795F"/>
</svg>
